svg/fluentui-system-icons/ic_fluent_book_add_24_regular.svg

<svg width="24" height="24" viewBox="0 0 24 24" fill="none" xmlns="http://www.w3.org/2000/svg">
<path d="M3 4.5C3 3.11929 4.11929 2 5.5 2H17C18.3807 2 19.5 3.11929 19.5 4.5V11.3135C19.0218 11.159 18.5195 11.0585 18 11.0189V4.5C18 3.94772 17.5523 3.5 17 3.5H5.5C4.94772 3.5 4.5 3.94772 4.5 4.5V18H11.0189C11.0585 18.5195 11.159 19.0218 11.3135 19.5H4.5C4.5 20.0523 4.94772 20.5 5.5 20.5H11.7322C12.0194 21.051 12.3832 21.5557 12.8096 22H5.5C4.11929 22 3 20.8807 3 19.5V4.5ZM17.5 12C20.5376 12 23 14.4624 23 17.5C23 20.5376 20.5376 23 17.5 23C14.4624 23 12 20.5376 12 17.5C12 14.4624 14.4624 12 17.5 12ZM18.0011 20.5035L18.0006 18H20.503C20.7792 18 21.003 17.7762 21.003 17.5C21.003 17.2239 20.7792 17 20.503 17H18.0005L18 14.4993C18 14.2231 17.7761 13.9993 17.5 13.9993C17.2239 13.9993 17 14.2231 17 14.4993L17.0005 17H14.4961C14.22 17 13.9961 17.2239 13.9961 17.5C13.9961 17.7762 14.22 18 14.4961 18H17.0006L17.0011 20.5035C17.0011 20.7797 17.225 21.0035 17.5011 21.0035C17.7773 21.0035 18.0011 20.7797 18.0011 20.5035ZM6 6C6 5.44772 6.44772 5 7 5H15C15.5523 5 16 5.44772 16 6V8C16 8.55228 15.5523 9 15 9H7C6.44772 9 6 8.55228 6 8V6ZM7.5 7.5H14.5V6.5H7.5V7.5Z" fill="#212121"/>
</svg>

<svg xmlns="http://www.w3.org/2000/svg" width="24" height="24"><path d="M3 4.5A2.5 2.5 0 0 1 5.5 2H17a2.5 2.5 0 0 1 2.5 2.5v6.813a6.475 6.475 0 0 0-1.5-.294V4.5a1 1 0 0 0-1-1H5.5a1 1 0 0 0-1 1V18h6.519c.04.52.14 1.022.294 1.5H4.5a1 1 0 0 0 1 1h6.232A6.518 6.518 0 0 0 12.81 22H5.5A2.5 2.5 0 0 1 3 19.5v-15ZM17.5 12a5.5 5.5 0 1 1 0 11 5.5 5.5 0 0 1 0-11Zm.501 8.503V18h2.502a.5.5 0 1 0 0-1H18v-2.5a.5.5 0 1 0-1 0V17h-2.504a.5.5 0 0 0 0 1h2.505v2.503a.5.5 0 1 0 1 0ZM6 6a1 1 0 0 1 1-1h8a1 1 0 0 1 1 1v2a1 1 0 0 1-1 1H7a1 1 0 0 1-1-1V6Zm1.5 1.5h7v-1h-7v1Z"/></svg>
